svg/perspective_less.svg

<?xml version="1.0" encoding="UTF-8"?><!DOCTYPE svg PUBLIC "-//W3C//DTD SVG 1.1//EN" "http://www.w3.org/Graphics/SVG/1.1/DTD/svg11.dtd"><svg xmlns="http://www.w3.org/2000/svg" xmlns:xlink="http://www.w3.org/1999/xlink" version="1.1" id="mdi-perspective-less" width="24" height="24" viewBox="0 0 24 24"><path d="M16.56,12L19.23,20H4.78L7.44,12H16.56M7,1L3,5L7,9V6H11V4H7V1M17,1V4H13V6H17V9L21,5L17,1M18,10H6L2,22H22L18,10Z" /></svg>

<svg xmlns="http://www.w3.org/2000/svg" viewBox="0 0 24 24"><path d="m16.56 12 2.67 8H4.78l2.66-8zM7 1 3 5l4 4V6h4V4H7zm10 0v3h-4v2h4v3l4-4zm1 9H6L2 22h20z"/></svg>
